!!!OTL: Der Maedchenmoerder (Halewijn - Ulinger) Es ritt ein Reiter durch ein Ried,
!!!ARE: Europa, Mitteleuropa, Schweiz
!!!YOR: 2, S. 112
!!    190? aufgezeichnet (Anfang d. Jh.)
!!!SCT: Q0041Q
!!!YEM: Copyright 1995, estate of Helmut Schaffrath.
**kern
*ICvox
*Ivox
*M6/8
*k[f#]
*G:
{8g
=1
4b
8g
8g
8b
8dd
=2
4a
8f#
4d}
{8f#
=3
4a
8f#
8d
8f#
8a
=4
4b
8g
4g}
{8d
=5
8g
8f#
8e
8d
8c
8B
=6
4d
8cc
4b}
{8a
=7
8g
8f#
8e
8d
8c
8B
=8
4d
8f#
4g}
==
!!!AGN: Ballade, Verfuehrung, Mord, Mordversuch bzw. Rache
!!!ONB: ESAC (Essen Associative Code) Database: BALLADE
!!!AMT: compound duple
!!!AIN: vox
!!!EED: Helmut Schaffrath
!!!EEV: 1.0
*-
